X:1
T:Title
%%score { ( 1 3 ) | 2 }
L:1/8
M:4/4
K:G
V:1 treble nm="Grand Piano"
V:3 treble 
V:2 bass 
V:1
 z4 z2[Q:1/4=100] D2 | [G,B,G]2 [G,DG]2 [G,EG]2 G2 | B2 A2 [B,G]2 D2 | A2 A2 c2 B2 |[M:3/4] A6 | %5
[M:1/4] D2 |[M:4/4] B2 B2 B2 B2 | c2 [Gd]2 [Ge]2 cA | z2 G2 z2 A2 |[M:3/4] [B,G]6 |] %10
V:2
 z4 z2 D,2 | G,,2 B,,2 C,2 [E,G,B,]2 | [D,G,D]2 [D,F,C]2 [G,,G,]2 [G,B,]2 | %3
 [F,A,D]2 [D,F,D]2 [F,A,D]2 [G,D]2 |[M:3/4] [D,F,D]6 |[M:1/4] D,2 | %6
[M:4/4] [G,B,D]2 [A,B,^D]2 [G,B,E]2 [=F,G,=D]2 | [E,G,C]2 [D,B,]2 [C,C]2 [C,C]2 | %8
 [D,B,D]2 .[E,A,^C]2 [D,G,D]2 .[D,F,D]2 |[M:3/4] [G,,G,]6 |] %10
V:3
 x8 | x8 | x8 | x8 |[M:3/4] x6 |[M:1/4] x2 |[M:4/4] x8 | z4 z2 E2 | G2 z G, B2 z C |[M:3/4] x6 |] %10

